X: 3
T: No_100_Song_in_the_Early_Evening_(a).krn
N: Derived from No_100_Song_in_the_Early_Evening_(a).krn
%%abc-version 2.0
%%abcx-abcm2ps-target-version 5.9.1 (29 Sep 2008)
%%abc-creator hum2abc beta
%%abcx-conversion-date 2019/03/15 08:39:19
%%humdrum-veritas 4007285353
%%humdrum-veritas-data 941854400
%%linebreak <none>
%%barnumbers 0
L: 1/16
M: 2/4
%%staves {1 2}
V: 1 clef=bass
V: 2 clef=bass
K: Bb
[V:1] [K:clef=bass][M:2/4]z2 z D, (3D,2D,2A,2 | 
[V:2] [K:clef=bass][M:2/4]G,,G,,2G,, G,,G,,2G,, | 
[V:1] A,B,2G, (3G,2G,2B,2 | 
[V:2] G,,G,,2G,,z4 | 
[V:1] A,3B, A,B,2G, | 
[V:2] z8 | 
[V:1] G,4D,D,D,D, | 
[V:2] z8 | 
[V:1] G,2z4D,3/A,/ | 
[V:2] z8 | 
[V:1] A,B,2G, (3G,2G,2B,2 | 
[V:2] z8 | 
[V:1] A,3B, A,B,2G, | 
[V:2] z8 | 
[V:1] G,4D,D,D,D, | 
[V:2] z8 | 
[V:1] G,2 z2 (3D,2D,2A,2 | 
[V:2] z8 | 
[V:1] A,B,2G, (3G,2G,2B,2 | 
[V:2] z8 | 
[V:1] A,3B, A,B,2G, | 
[V:2] z8 | 
[V:1] G,4D,D,D,D, | 
[V:2] z8 | 
[V:1] G,2z4D,3/A,/ | 
[V:2] z8 | 
[V:1] A,B,2G, (3G,2G,2B,2 | 
[V:2] z8 | 
[V:1] A,3B, A,B,2G, | 
[V:2] z8 | 
[V:1] G,4D,D,D,D, | 
[V:2] z8 | 
[V:1] G,2 z2z4 | 
[V:2] z8 | 
[V:1] z8 | 
[V:2] z8 | 
[V:1] z4G,3B, | 
[V:2] z8 | 
[V:1] B,4B,2A,2 | 
[V:2] z8 | 
[V:1] (3A,2C2C2 B,3A, | 
[V:2] z8 | 
[V:1] A,B, z2 (3G,2G,2B,2 | 
[V:2] z8 | 
[V:1] A,3B, G,B,2G, | 
[V:2] z8 | 
[V:1] G,4D,D,D,D, | 
[V:2] z8 | 
[V:1] G,2 z2 D,D,D,A, | 
[V:2] z8 | 
[V:1] A,B,2G, (3G,2G,2B,2 | 
[V:2] z8 | 
[V:1] A,3B, A,B,2G, | 
[V:2] z8 | 
[V:1] G,4D,D,D,D, | 
[V:2] z8 | 
[V:1] G,6z2 |]  
[V:2] z8 |]  



